build/category/LineChartOutline.svg

<svg xmlns="http://www.w3.org/2000/svg" fill="none" viewBox="0 0 24 24" focusable="false"><path d="M0 0H24V24H0z" transform="matrix(1 0 0 -1 0 24)"/><path fill="#74767B" fill-rule="evenodd" d="M11.0697 13.2016L8.75729 10.8862C8.88219 10.623 8.95206 10.3287 8.95206 10.018C8.95206 8.89808 8.04421 7.99023 6.92432 7.99023C5.80443 7.99023 4.89658 8.89808 4.89658 10.018C4.89658 11.1379 5.80443 12.0457 6.92432 12.0457C7.25917 12.0457 7.57506 11.9646 7.85339 11.8208L10.1659 14.1363C10.0411 14.3994 9.97129 14.6937 9.97129 15.0043C9.97129 16.1242 10.8791 17.032 11.999 17.032C13.1189 17.032 14.0268 16.1242 14.0268 15.0043C14.0268 14.6088 13.9136 14.2398 13.7178 13.9278L16.647 8.9284C16.7991 8.96484 16.9578 8.98413 17.1211 8.98413C18.241 8.98413 19.1488 8.07628 19.1488 6.95639C19.1488 5.8365 18.241 4.92865 17.1211 4.92865C16.0012 4.92865 15.0934 5.8365 15.0934 6.95639C15.0934 7.44092 15.2633 7.88575 15.5468 8.23454L12.6963 13.0996C12.4789 13.02 12.244 12.9766 11.999 12.9766C11.6641 12.9766 11.3481 13.0578 11.0697 13.2016ZM17.1211 7.68413C17.523 7.68413 17.8488 7.35831 17.8488 6.95639C17.8488 6.55447 17.523 6.22865 17.1211 6.22865C16.7192 6.22865 16.3934 6.55447 16.3934 6.95639C16.3934 7.35831 16.7192 7.68413 17.1211 7.68413ZM6.92432 10.7457C7.32624 10.7457 7.65206 10.4199 7.65206 10.018C7.65206 9.61605 7.32624 9.29023 6.92432 9.29023C6.5224 9.29023 6.19658 9.61605 6.19658 10.018C6.19658 10.4199 6.5224 10.7457 6.92432 10.7457ZM12.7268 15.0043C12.7268 15.4062 12.4009 15.732 11.999 15.732C11.5971 15.732 11.2713 15.4062 11.2713 15.0043C11.2713 14.6024 11.5971 14.2766 11.999 14.2766C12.4009 14.2766 12.7268 14.6024 12.7268 15.0043ZM3.37988 19.3447C3.37988 18.9857 3.6709 18.6947 4.02988 18.6947L19.9952 18.6947C20.3541 18.6947 20.6452 18.9857 20.6452 19.3447C20.6452 19.7037 20.3541 19.9947 19.9952 19.9947L4.02988 19.9947C3.6709 19.9947 3.37988 19.7037 3.37988 19.3447Z"/></svg>

<svg xmlns="http://www.w3.org/2000/svg" fill="none" viewBox="0 0 24 24" focusable="false"><path fill="#74767B" fill-rule="evenodd" d="m11.06 13.2-2.31-2.32c.13-.26.2-.56.2-.87 0-1.12-.91-2.02-2.03-2.02s-2.03.9-2.03 2.02.91 2.03 2.03 2.03c.33 0 .65-.08.93-.22l2.31 2.31c-.12.26-.19.56-.19.87 0 1.12.9 2.03 2.02 2.03a2.031 2.031 0 0 0 1.72-3.11l2.93-5q.225.06.48.06c1.12 0 2.02-.91 2.02-2.03s-.9-2.03-2.02-2.03a2.031 2.031 0 0 0-1.58 3.31l-2.85 4.86c-.22-.07-.45-.12-.7-.12-.33 0-.65.08-.93.23m6.06-5.52c.4 0 .72-.33.72-.73a.726.726 0 1 0-1.45 0c0 .4.32.73.73.73m-10.2 3.06c.4 0 .73-.33.73-.73s-.33-.72-.73-.72-.73.32-.73.72.33.73.73.73m5.8 4.26a.726.726 0 1 1-1.45 0 .726.726 0 1 1 1.45 0m-9.35 4.34c0-.36.3-.65.65-.65h15.97c.36 0 .65.29.65.65s-.29.65-.65.65H4.02c-.35 0-.65-.29-.65-.65"/></svg>
